packages/core/src/svgs/tokens/mono/ITP.svg

<svg width="24" height="24" viewBox="0 0 24 24" fill="none" xmlns="http://www.w3.org/2000/svg">
<path d="M11.9971 21.9963C17.5179 21.9963 21.9934 17.521 21.9934 12.0002C21.9934 6.47947 17.5179 2.00403 11.9971 2.00403C6.4764 2.00403 2.00098 6.47947 2.00098 12.0002C2.00098 17.521 6.4764 21.9963 11.9971 21.9963Z" fill="white"/>
<path d="M21.0187 16.311C21.9246 14.4225 22.2123 12.2966 21.841 10.2352C21.4699 8.17381 20.4585 6.28181 18.9507 4.82796C18.5822 5.384 18.251 6.17119 18.8695 6.37735C19.1194 6.46482 19.3318 6.50231 19.4943 6.53355C19.9316 6.61476 20.0315 6.63351 19.8067 7.3145C19.4943 8.25164 19.4943 8.25164 18.8695 7.93925C18.2447 7.62688 17.62 7.62688 17.9323 8.56401C18.0136 8.80143 18.0886 8.95761 18.1448 9.06382C18.1947 9.16386 18.226 9.22625 18.2072 9.26372C18.1886 9.31372 18.0948 9.32625 17.8824 9.37626C17.745 9.40118 17.5575 9.43865 17.3076 9.50119C16.058 9.81359 15.7456 10.126 15.7456 10.4382C15.7456 10.5445 15.7082 10.5757 15.677 10.6132C15.6083 10.6757 15.5395 10.7506 15.7456 11.3754C15.9082 11.8565 16.3142 12.094 16.5891 12.2501C16.8515 12.3938 16.9827 12.475 16.6828 12.6249C16.3081 12.8124 16.1643 12.7749 15.9019 12.7186C15.727 12.6749 15.502 12.6249 15.121 12.6249C14.746 12.6249 14.4713 12.475 14.215 12.3313C13.8339 12.1252 13.4966 11.9377 12.9343 12.3126C12.6843 12.4813 12.4719 12.6062 12.3095 12.7C11.8722 12.9624 11.7722 13.0248 11.9971 13.2497C12.1034 13.356 12.0659 13.4246 12.0346 13.4934C11.9597 13.6308 11.891 13.7682 12.9343 14.1869C13.2461 14.3132 13.5585 14.4381 13.8714 14.5617C14.8772 14.949 15.502 15.1928 15.7456 15.4364C15.8519 15.5426 15.9206 15.6801 15.9894 15.8174C16.1268 16.0986 16.2643 16.3736 16.6828 16.3736C17.3076 16.3736 17.9323 16.3736 18.2447 16.686C18.5571 16.9982 18.8695 17.3106 19.4943 16.9982C19.6816 16.9046 19.8067 16.7858 19.9316 16.6672C20.1815 16.436 20.4127 16.2298 21.0187 16.3048V16.311ZM20.0191 17.9666C19.7911 17.7541 19.4934 17.6319 19.1819 17.623C18.6758 17.623 18.5322 17.623 18.4134 17.573C18.2587 17.4756 18.098 17.388 17.9323 17.3106C17.3076 16.9982 16.6828 16.9982 16.6828 17.623C16.6828 17.9105 16.8203 18.1353 16.9327 18.3228C17.0576 18.5352 17.1639 18.7038 16.9952 18.8726C16.8766 18.9913 16.6266 18.9725 16.383 18.9601C15.9643 18.935 15.552 18.9101 15.7456 19.4973L15.8644 19.8846C15.9894 20.3345 16.1143 20.7406 16.4392 20.9593C17.851 20.2566 19.0774 19.2315 20.0191 17.9666ZM2.00098 12.3876V12.0002C2.00098 8.95137 3.36295 6.22742 5.51213 4.39062C5.93071 4.75298 6.35555 5.2528 6.68667 5.75259C7.06778 6.32113 6.98656 6.43359 6.93658 6.50231C6.8991 6.53979 6.8741 6.56479 6.99906 6.68974C7.19897 6.88966 7.6488 6.83343 8.1986 6.77095C8.51097 6.73347 8.84834 6.68974 9.18566 6.68974C10.1229 6.68974 9.18566 7.3145 8.24857 7.62688C7.69879 7.81431 7.79249 8.31412 7.90496 8.89515C7.97993 9.30118 8.06739 9.73851 7.9362 10.126C7.84248 10.407 7.74876 10.5757 7.68629 10.6945C7.52385 10.9881 7.49885 11.0318 7.9362 11.6878C8.29856 12.2252 8.24232 12.4562 8.18609 12.6749C8.15485 12.8312 8.11737 12.9873 8.24857 13.2497C8.46098 13.6745 8.38603 13.6684 8.01116 13.6184C7.77953 13.5832 7.54571 13.5644 7.31143 13.5621C6.79288 13.5621 6.3743 13.3746 5.99943 13.1997C5.68706 13.0622 5.40591 12.9373 5.12477 12.9373C4.88737 12.9373 4.69994 12.8061 4.48128 12.6562C4.13141 12.4062 3.71281 12.1189 2.93811 12.3126C2.582 12.4001 2.26961 12.4125 2.00722 12.3876H2.00098Z" fill="white"/>
<path d="M21.0248 16.3047C20.8748 16.6171 20.7124 16.9107 20.5375 17.2045L20.4 17.2794C20.2377 17.3857 20.0439 17.5043 19.8066 17.623C19.3567 17.8479 18.9068 17.7479 18.5758 17.6793C18.4446 17.6481 18.332 17.623 18.2446 17.623C18.0885 17.623 18.0073 17.4669 17.9322 17.3106C17.851 17.1545 17.7761 16.9982 17.6199 16.9982C17.3075 16.9982 16.6827 17.623 16.6827 17.9354C16.6827 18.2478 16.6827 18.8726 16.3703 18.2478C16.2829 18.0791 16.2017 17.9542 16.133 17.8605C15.9581 17.5981 15.9143 17.5355 16.3703 17.3106C16.9951 16.9982 16.3703 16.9982 15.7455 16.9982C15.2458 16.9982 14.9146 16.3735 14.8085 16.0611C15.0271 15.6238 15.4019 15.7987 15.933 16.0549C16.1579 16.1611 16.4078 16.2798 16.6827 16.3735C17.1513 16.5297 17.3887 16.5297 17.5823 16.5297C17.7761 16.5297 17.9322 16.5297 18.2446 16.6859C18.6319 16.8733 18.5383 16.9545 18.4132 17.0545C18.3383 17.117 18.2446 17.1919 18.2446 17.3106C18.2446 17.623 19.1818 17.3106 19.8066 16.6859C19.9688 16.5362 20.1623 16.4244 20.3729 16.3585C20.5836 16.2926 20.8062 16.2743 21.0248 16.3047ZM15.1209 3.5659C15.1209 3.77207 15.2458 4.19066 15.7455 4.19066C15.983 4.19066 16.2703 4.28438 16.5141 4.35935C16.9014 4.4843 17.1887 4.57802 16.9951 4.19066C16.9326 4.07821 16.8889 3.97199 16.8514 3.87829C16.6639 3.4597 16.5703 3.25353 16.0579 3.25353C15.8393 3.25353 15.6643 3.17856 15.5207 3.12233C15.2521 3.00986 15.1209 2.95364 15.1209 3.5659ZM7.31131 3.5659C7.51748 3.87829 7.99855 4.50305 8.24845 4.50305C8.56084 4.50305 9.18554 4.50305 9.81034 4.81543C10.4351 5.1278 10.7475 4.81543 11.0599 4.50305C11.1849 4.3781 11.341 4.31562 11.4847 4.2469C11.7159 4.14693 11.8783 4.07197 11.6846 3.87829C11.5597 3.75333 11.5347 3.64087 11.5159 3.53466C11.4722 3.37224 11.4473 3.25353 11.0599 3.25353C10.785 3.25353 10.635 3.37847 10.4975 3.48469C10.3102 3.62213 10.1602 3.74083 9.81034 3.5659C9.60421 3.4597 9.49794 3.39097 9.42928 3.34723C9.38555 3.31599 9.36047 3.29726 9.32301 3.28477C9.25435 3.25353 9.16688 3.25353 8.87321 3.25353C8.71077 3.25353 8.54833 3.23478 8.39215 3.2098C7.94858 3.15357 7.54247 3.10358 7.31131 3.5659ZM7.6237 8.87637C7.6237 9.12622 6.79276 8.98258 6.37418 8.87637C6.06179 8.56398 6.68655 8.25161 6.99894 8.25161C7.31131 8.25161 7.6237 8.56398 7.6237 8.87637ZM4.18752 7.62685C4.29372 7.73305 4.56237 7.87676 4.81228 7.62685C4.96221 7.4769 5.3933 7.40193 5.79939 7.32696C6.25547 7.24574 6.68655 7.16452 6.68655 7.00209C6.68655 6.81465 6.44914 6.85215 6.11802 6.91463C5.91185 6.95836 5.68069 7.00209 5.43703 7.00209C4.81228 7.00209 4.18752 7.31446 4.18752 7.62685ZM3.56275 9.50115C3.06295 9.75102 2.93799 9.39488 2.93799 9.18875C3.32535 9.18875 3.35033 9.06379 3.39407 8.90761C3.41281 8.80139 3.44405 8.68269 3.56275 8.56398C3.87513 8.25161 3.87513 8.87637 3.87513 9.18875C3.87513 9.34488 3.95634 9.34488 3.95634 9.34488C3.95634 9.34488 3.87513 9.34488 3.56275 9.50115ZM5.74941 11.3754C6.06179 10.9569 6.74903 10.1883 6.99894 10.4382C7.31131 10.7506 6.06179 12.0002 5.74941 11.3754ZM3.87513 12.9373C4.37494 13.1873 3.87513 13.4558 3.56275 13.5621C3.38157 13.637 3.25037 13.5621 3.25037 13.2497C3.25037 12.9373 3.25037 12.6249 3.87513 12.9373Z" fill="white"/>
<path d="M6.09934 3.92832C6.28678 4.07827 6.58042 4.19072 6.999 4.19072H8.87328C8.5609 4.19072 6.68662 3.56596 7.93615 3.25359C8.58589 3.09115 8.64212 3.17861 8.72958 3.30356C8.80456 3.42227 8.89828 3.56596 9.49801 3.56596C10.0291 3.56596 10.3852 3.45351 10.6539 3.37853C11.01 3.25983 11.1912 3.2036 11.3723 3.56596C11.5597 3.94083 11.5223 3.97831 11.3911 4.08452C11.3036 4.15949 11.1849 4.25945 11.06 4.5031C10.8537 4.92169 10.3664 5.05914 9.87921 5.19658C9.63547 5.26532 9.39188 5.33404 9.19187 5.44025C9.00448 5.53395 8.79206 5.59643 8.61713 5.65266C8.19854 5.77762 7.99237 5.84009 8.87328 6.06501C9.33561 6.17746 9.5792 6.3399 9.77294 6.45861C10.104 6.66478 10.2728 6.77098 11.06 6.37738C11.6847 6.06501 11.9221 5.82759 12.1157 5.63391C12.3095 5.44025 12.4656 5.28405 12.9343 5.12786C13.4465 4.95918 13.3965 4.78425 13.3528 4.61556C13.3153 4.47186 13.2779 4.33442 13.5589 4.19072C13.8901 4.02204 14.1337 4.12825 14.34 4.20323C14.5149 4.27818 14.6648 4.33442 14.8085 4.19072C14.9647 4.03453 14.9647 3.95332 14.9647 3.84085C14.9647 3.72215 14.9647 3.56596 15.1209 3.25359C15.2396 3.01617 15.4083 2.81626 15.5769 2.66631C14.018 2.06585 12.3331 1.86673 10.6771 2.08724C9.02099 2.30775 7.4469 2.94084 6.09934 3.92832ZM16.6079 20.8718C15.3956 21.5023 14.0671 21.8777 12.7041 21.9748C11.3412 22.0717 9.9728 21.8884 8.68359 21.4357C7.39434 20.9831 6.21156 20.271 5.20832 19.3434C4.20506 18.4158 3.40263 17.2923 2.85059 16.0424C3.31292 15.3677 3.9939 14.668 4.81234 14.4993C5.85568 14.3931 7.99861 14.1869 8.24852 14.1869C8.35473 14.1869 8.45469 14.2244 8.59838 14.2681C8.87328 14.3619 9.28561 14.4993 10.1228 14.4993C10.5601 14.4993 10.9725 14.418 11.3473 14.3493C12.0345 14.2119 12.6405 14.0995 13.2467 14.4993C13.6777 14.7867 14.4336 15.0053 15.0647 15.1865C15.8144 15.4115 16.3955 15.5801 16.0643 15.7488C15.7519 15.9049 15.5895 15.9049 15.4395 15.9049C15.2771 15.9049 15.1272 15.9049 14.8148 16.0612C14.5211 16.2049 14.6273 16.4111 14.7397 16.6235C14.8648 16.8796 15.0021 17.142 14.4961 17.3107C14.0776 17.4481 13.7839 17.2795 13.5277 17.1233C13.2153 16.9421 12.9655 16.7921 12.6219 17.3107C12.4656 17.5481 12.2845 17.7668 12.122 17.9604C11.666 18.5228 11.3723 18.8727 12.3095 18.8727C12.6656 18.8727 12.9467 18.8976 13.1841 18.9225C13.7901 18.9725 14.14 19.0039 14.8085 18.5603C15.2459 18.2728 15.4708 17.9166 15.6269 17.6856C15.8144 17.4044 15.8893 17.2857 16.0643 17.6231C16.3767 18.2479 16.6891 18.5603 17.0015 18.8727C17.1513 19.0288 17.0764 19.0288 16.8015 19.0288C16.5267 19.0288 16.058 19.0288 15.4333 19.1849C15.0647 19.2786 14.7023 19.3412 14.3961 19.3975C13.6652 19.5224 13.3028 19.5848 14.1837 19.8097C14.8772 19.9846 15.0896 20.1596 15.3083 20.3282C15.4708 20.472 15.6395 20.6094 16.058 20.7469C16.2455 20.8093 16.4329 20.8468 16.6079 20.8718Z" fill="white"/>
</svg>

<svg xmlns="http://www.w3.org/2000/svg" width="24" height="24" fill="none" viewBox="0 0 24 24">
    <path fill="#fff" d="M11.997 21.996c5.52 0 9.996-4.475 9.996-9.996 0-5.52-4.475-9.996-9.996-9.996-5.52 0-9.996 4.475-9.996 9.996s4.475 9.996 9.996 9.996"/>
    <path fill="#fff" d="M21.019 16.311A9.96 9.96 0 0 0 18.95 4.828c-.369.556-.7 1.343-.082 1.55.25.087.463.124.625.156.438.08.538.1.313.78-.313.938-.313.938-.937.625s-1.25-.312-.938.625c.082.237.157.394.213.5.05.1.081.162.062.2-.018.05-.112.062-.325.112a9 9 0 0 0-.574.125c-1.25.313-1.562.625-1.562.937 0 .106-.038.138-.069.175-.069.063-.137.138.069.762.162.482.568.719.843.875.263.144.394.225.094.375-.375.187-.519.15-.781.094a3 3 0 0 0-.781-.094c-.375 0-.65-.15-.906-.294-.381-.206-.718-.393-1.28-.018-.25.168-.463.293-.626.387-.437.262-.537.325-.312.55.106.106.069.175.038.243-.075.138-.144.275.9.694q.467.189.936.375c1.006.387 1.631.63 1.875.874.106.107.175.244.243.381.138.282.275.557.694.557.625 0 1.25 0 1.562.312s.624.625 1.25.312c.187-.093.312-.212.437-.33.25-.232.48-.438 1.087-.363zm-1 1.656a1.28 1.28 0 0 0-.837-.344c-.506 0-.65 0-.769-.05a4 4 0 0 0-.48-.262c-.625-.313-1.25-.313-1.25.312 0 .287.137.512.25.7.125.212.23.38.062.55-.118.118-.368.1-.612.087-.419-.025-.831-.05-.637.537l.118.388c.125.45.25.856.575 1.074a10.04 10.04 0 0 0 3.58-2.992m-18.018-5.58V12a9.98 9.98 0 0 1 3.511-7.61c.419.363.844.863 1.175 1.363.38.568.3.68.25.75-.038.037-.063.062.062.187.2.2.65.143 1.2.08.312-.037.65-.08.987-.08.937 0 0 .624-.937.937-.55.187-.457.687-.344 1.268.075.406.162.844.031 1.231-.094.281-.187.45-.25.569-.162.293-.187.337.25.993.363.537.306.768.25.987-.031.156-.069.312.063.575.212.425.137.418-.238.368a5 5 0 0 0-.7-.056c-.518 0-.937-.187-1.312-.362-.312-.138-.593-.263-.874-.263-.238 0-.425-.13-.644-.28-.35-.25-.768-.538-1.543-.344-.356.087-.668.1-.93.075z"/>
    <path fill="#fff" d="M21.025 16.305c-.15.312-.313.606-.487.9l-.138.074a6 6 0 0 1-.593.344c-.45.225-.9.125-1.231.056a1.6 1.6 0 0 0-.331-.056c-.157 0-.238-.156-.313-.312-.081-.157-.156-.313-.312-.313-.312 0-.937.625-.937.937s0 .938-.313.313a3 3 0 0 0-.237-.388c-.175-.262-.219-.325.237-.55.625-.312 0-.312-.625-.312-.5 0-.83-.625-.936-.937.218-.437.593-.262 1.124-.006.225.106.475.225.75.319.468.156.706.156.9.156.193 0 .35 0 .662.156.387.187.293.268.168.369-.075.062-.168.137-.168.256 0 .312.937 0 1.562-.625a1.5 1.5 0 0 1 1.218-.381M15.12 3.565c0 .207.125.626.624.626.238 0 .525.093.77.168.386.125.674.219.48-.168a3 3 0 0 1-.144-.313c-.187-.418-.28-.624-.793-.624-.219 0-.394-.075-.537-.132-.269-.112-.4-.168-.4.444m-7.81 0c.206.313.688.938.937.938.313 0 .938 0 1.562.312.625.313.938 0 1.25-.312.125-.125.281-.187.425-.256.23-.1.393-.175.2-.369a.57.57 0 0 1-.17-.343c-.043-.163-.068-.281-.455-.281-.275 0-.425.124-.562.23-.188.138-.338.257-.688.082-.206-.106-.312-.175-.38-.219-.044-.031-.07-.05-.107-.062-.069-.031-.156-.031-.45-.031a3 3 0 0 1-.48-.044c-.444-.056-.85-.106-1.082.356m.313 5.311c0 .25-.831.107-1.25 0-.312-.312.313-.624.625-.624s.625.312.625.624m-3.436-1.25c.106.107.374.25.624 0 .15-.15.581-.224.987-.299.456-.081.888-.162.888-.325 0-.187-.238-.15-.569-.087a3.3 3.3 0 0 1-.681.087c-.625 0-1.25.312-1.25.625m-.625 1.875c-.5.25-.625-.106-.625-.312.387 0 .412-.125.456-.281a.6.6 0 0 1 .169-.344c.312-.312.312.312.312.625 0 .156.081.156.081.156s-.08 0-.393.156m2.186 1.874c.313-.418 1-1.187 1.25-.937.312.313-.937 1.562-1.25.937M3.873 12.94c.5.25 0 .519-.312.625-.181.075-.313 0-.313-.312 0-.313 0-.625.625-.313"/>
    <path fill="#fff" d="M6.1 3.928c.187.15.48.263.899.263h1.874c-.312 0-2.186-.625-.937-.937.65-.163.706-.075.794.05.075.118.168.262.768.262.531 0 .887-.112 1.156-.187.356-.12.537-.175.718.187.188.375.15.412.02.519-.088.074-.207.174-.332.418-.206.419-.694.556-1.18.694-.245.068-.488.137-.688.243-.188.094-.4.156-.575.213-.418.125-.625.187.256.412.463.112.706.275.9.394.331.206.5.312 1.287-.082.625-.312.862-.55 1.056-.743.194-.194.35-.35.818-.506.513-.169.463-.344.419-.512-.038-.144-.075-.282.206-.425.331-.169.575-.063.781.012.175.075.325.131.469-.012.156-.156.156-.238.156-.35 0-.119 0-.275.156-.587a2 2 0 0 1 .456-.588 9.97 9.97 0 0 0-9.478 1.262m10.508 16.944a10 10 0 0 1-11.4-1.529 10 10 0 0 1-2.357-3.3c.462-.675 1.143-1.375 1.961-1.544 1.044-.106 3.187-.312 3.437-.312.106 0 .206.037.35.081.274.094.687.231 1.524.231.437 0 .85-.081 1.224-.15.688-.137 1.293-.25 1.9.15.43.288 1.187.506 1.818.688.75.225 1.33.393 1 .562-.313.156-.476.156-.626.156-.162 0-.312 0-.624.156-.294.144-.188.35-.075.563.125.256.262.518-.244.687-.418.137-.712-.032-.968-.188-.313-.18-.562-.33-.906.188a7 7 0 0 1-.5.65c-.456.562-.75.912.188.912.356 0 .637.025.874.05.606.05.956.08 1.625-.363.437-.287.662-.643.818-.874.187-.282.262-.4.437-.063.313.625.625.937.938 1.25.15.156.074.156-.2.156-.275 0-.744 0-1.369.156-.368.094-.73.156-1.037.213-.73.124-1.093.187-.212.412.693.175.906.35 1.124.518.163.144.332.281.75.419.188.062.375.1.55.125"/>
</svg>
